packages/tokens/icons/variant/size24Px.svg

<svg viewBox="0 0 24 24" fill="none" xmlns="http://www.w3.org/2000/svg" width="1em" height="1em"><circle cx="7.5" cy="3.5" r="1" stroke="currentColor" stroke-linecap="round"/><circle cx="7.5" cy="20.5" r="1" stroke="currentColor" stroke-linecap="round"/><circle cx="16.5" cy="3.5" r="1" stroke="currentColor" stroke-linecap="round"/><circle cx="16.5" cy="20.5" r="1" stroke="currentColor" stroke-linecap="round"/><circle cx="20.5" cy="11.5" r="1" stroke="currentColor" stroke-linecap="round"/><circle cx="3.5" cy="11.5" r="1" stroke="currentColor" stroke-linecap="round"/><path d="M15.6033 12.4334L15.6033 12.4333C15.6074 12.4262 15.6116 12.419 15.6158 12.4117C15.6866 12.2893 15.7667 12.1508 15.8169 12.0096C15.8803 11.8316 15.896 11.658 15.8686 11.4634C15.8348 11.2237 15.6619 10.5299 15.5 9.90602C15.3354 9.27179 15.1619 8.634 15.1142 8.4861C15.0407 8.25793 14.8942 8.04467 14.6683 7.90303C14.4402 7.75999 14.1692 7.71379 13.8902 7.75446C13.6703 7.78652 12.9933 7.96866 12.3782 8.14315C11.758 8.31908 11.0969 8.51694 10.9016 8.59575C10.7194 8.66931 10.5769 8.76972 10.4545 8.91359C10.3573 9.02772 10.2774 9.16638 10.2068 9.28881C10.2026 9.29609 10.1984 9.30331 10.1943 9.31047L7.83255 13.4011C7.55074 13.8892 7.70923 14.5206 8.20431 14.8064L11.8387 16.9047C12.3338 17.1905 12.9597 17.0121 13.2415 16.524L15.6033 12.4334Z" stroke="currentColor"/><circle cx="13.683" cy="9.68301" r="0.25" transform="rotate(30 13.683 9.68301)" stroke="currentColor" stroke-width="0.5"/></svg>

<svg xmlns="http://www.w3.org/2000/svg" fill="none" viewBox="0 0 24 24" width="1em" height="1em"><circle cx="7.5" cy="3.5" r="1" stroke="currentColor" stroke-linecap="round"/><circle cx="7.5" cy="20.5" r="1" stroke="currentColor" stroke-linecap="round"/><circle cx="16.5" cy="3.5" r="1" stroke="currentColor" stroke-linecap="round"/><circle cx="16.5" cy="20.5" r="1" stroke="currentColor" stroke-linecap="round"/><circle cx="20.5" cy="11.5" r="1" stroke="currentColor" stroke-linecap="round"/><circle cx="3.5" cy="11.5" r="1" stroke="currentColor" stroke-linecap="round"/><path stroke="currentColor" d="m15.603 12.433.013-.021c.07-.123.15-.261.2-.402.064-.178.08-.352.053-.547-.034-.24-.207-.933-.369-1.557a45.891 45.891 0 0 0-.386-1.42 1.066 1.066 0 0 0-.446-.583 1.135 1.135 0 0 0-.778-.149c-.22.033-.897.215-1.512.39-.62.175-1.281.373-1.476.452a1.108 1.108 0 0 0-.447.318 2.384 2.384 0 0 0-.248.375l-.013.021-2.361 4.091a1.028 1.028 0 0 0 .371 1.405l3.635 2.099a1.028 1.028 0 0 0 1.402-.381l2.362-4.09Z"/><circle cx="13.683" cy="9.683" r=".25" stroke="currentColor" stroke-width=".5" transform="rotate(30 13.683 9.683)"/></svg>
